X: 31474
T: Paddy The Bat, Mind Where You're At
R: polka
M: 2/4
K: Cmajor
|:EG/E/ CD|EE C>E|DD DC/D/|EE G>F|
EG/E/ CD|EE C>E|DD DF/D/|1 C2 C2:|2 C2 CG/A/||
|:cc AA|cc E>C|DD DC/D/|EE G>A|
cc AA|cc E>C|DD DF/D/|1 C2 CG/A/:|2 C2 C2||

